Source Code/mun/assets/flags/KEN.svg

<svg viewBox="0 0 40.5 40.5" xmlns="http://www.w3.org/2000/svg"><path d="m39.34 13.5h-38.18a11.65 11.65 0 0 1 .53-1.34 20.24 20.24 0 0 1 37.12 0 11.65 11.65 0 0 1 .53 1.34z"/><path d="m40.5 20.25a20.11 20.11 0 0 1 -.92 6.06c-.08.23-.15.46-.24.69h-38.18c-.09-.23-.16-.46-.24-.69a20.42 20.42 0 0 1 0-12.12c.08-.23.15-.46.24-.69h38.18c.09.23.16.46.24.69a20.26 20.26 0 0 1 .92 6.06z" fill="#b00"/><path d="m39.34 27a11.79 11.79 0 0 1 -.53 1.35 20.25 20.25 0 0 1 -37.12 0 11.79 11.79 0 0 1 -.53-1.35z" fill="#060"/><path d="m39.58 14.19h-38.66c.08-.23.15-.46.24-.69a11.65 11.65 0 0 1 .53-1.34h37.12a11.65 11.65 0 0 1 .53 1.34c.09.23.16.5.24.69z" fill="#fff"/><path d="m25.59 9.54c-.92 1.51-.91 2-.7 2.24l-2.55 4.37.42.25 2.57-4.4c.33.07.81-.33 1.63-1.81a15.67 15.67 0 0 0 1.47-4.06 14.86 14.86 0 0 0 -2.84 3.41z" fill="#fff"/><path d="m22.76 16.41-.43-.26 2.55-4.37a.69.69 0 0 1 -.07-.64 6.85 6.85 0 0 1 .77-1.61 15.55 15.55 0 0 1 2.85-3.42 16 16 0 0 1 -1.43 4.07 8.27 8.27 0 0 1 -1 1.49c-.25.26-.45.36-.64.33zm-.41-.26.41.24 2.57-4.39h.07c.37 0 .87-.58 1.56-1.81a15.79 15.79 0 0 0 1.46-4 15.74 15.74 0 0 0 -2.82 3.35c-1 1.62-.87 2.05-.71 2.23z"/><path d="m14.91 9.54c.92 1.51.91 2 .71 2.24l2.55 4.37-.43.25-2.57-4.4c-.32.09-.8-.33-1.63-1.81a15.67 15.67 0 0 1 -1.47-4.06 14.86 14.86 0 0 1 2.84 3.41z" fill="#fff"/><path d="m17.74 16.41-2.57-4.41h-.08c-.37 0-.86-.59-1.55-1.83a15.58 15.58 0 0 1 -1.47-4.06 15.67 15.67 0 0 1 2.84 3.42 6.46 6.46 0 0 1 .77 1.61.67.67 0 0 1 -.06.64l2.55 4.37zm-2.56-4.41 2.57 4.4.41-.24-2.55-4.37c.17-.18.28-.61-.7-2.23a15.64 15.64 0 0 0 -2.83-3.41 16 16 0 0 0 1.47 4.05c.68 1.23 1.18 1.82 1.54 1.82h.08z"/><path d="m39.58 26.31c-.08.23-.15.46-.24.69a11.79 11.79 0 0 1 -.53 1.35h-37.12a11.79 11.79 0 0 1 -.53-1.35c-.09-.23-.16-.46-.24-.69z" fill="#fff"/><path d="m25.51 26.7h.49v6.09h-.49z" fill="#fff" transform="matrix(.8640113 -.50347241 .50347241 .8640113 -11.47 17.01)"/><path d="m27.07 32.51-3.07-5.27.43-.25 3.07 5.27zm-3.07-5.27 3.06 5.25.41-.24-3.04-5.25z"/><path d="m11.73 29.5h6.09v.49h-6.09z" fill="#fff" transform="matrix(.5036232 -.86392342 .86392342 .5036232 -18.36 27.53)"/><path d="m13.45 32.51-.45-.25 3.1-5.26.43.26zm-.45-.26.41.24 3.06-5.25-.37-.24z"/><path d="m26.34 20.25a16.06 16.06 0 0 1 -1.26 6c-1.46 3.58-3.8 6.14-4.83 6.14s-3.36-2.58-4.82-6.16a15.85 15.85 0 0 1 -1.26-6 16 16 0 0 1 1.26-6c1.45-3.56 3.78-6.12 4.82-6.12s3.39 2.51 4.84 6.09a16.14 16.14 0 0 1 1.25 6.05z" fill="#b00"/><path d="m26.34 20.25a16.06 16.06 0 0 1 -1.26 6 16.15 16.15 0 0 1 -1.26-6 16.17 16.17 0 0 1 1.27-6.06 16.14 16.14 0 0 1 1.25 6.06z"/><path d="m16.69 20.25a16 16 0 0 1 -1.26 6 15.85 15.85 0 0 1 -1.26-6 16 16 0 0 1 1.26-6 16.2 16.2 0 0 1 1.26 6z"/><g fill="#fff"><path d="m21.29 20.25c0 .84-.46 1.52-1 1.52s-1-.68-1-1.52.47-1.51 1-1.51 1 .68 1 1.51z"/><path d="m20.5 8.14v10.64a12 12 0 0 0 1-5.51c.02-3.71-1-5.13-1-5.13z"/><path d="m20.5 32.37v-10.64a11.94 11.94 0 0 1 1 5.5c.02 3.77-1 5.14-1 5.14z"/><path d="m20 8.14v10.64a11.86 11.86 0 0 1 -1-5.51c0-3.71 1-5.13 1-5.13z"/><path d="m20 32.37v-10.64a11.84 11.84 0 0 0 -1 5.5c0 3.77 1 5.14 1 5.14z"/></g></svg>

<svg xmlns="http://www.w3.org/2000/svg" viewBox="0 0 40.5 40.5"><defs><style>.cls-1{fill:#b00;}.cls-2{fill:#060;}.cls-3{fill:#fff;}</style></defs><g id="Ebene_2" data-name="Ebene 2"><g id="Ńëîé_1" data-name="Ńëîé 1"><path d="M39.34,13.5H1.16a11.65,11.65,0,0,1,.53-1.34,20.24,20.24,0,0,1,37.12,0A11.65,11.65,0,0,1,39.34,13.5Z"/><path class="cls-1" d="M40.5,20.25a20.11,20.11,0,0,1-.92,6.06c-.08.23-.15.46-.24.69H1.16c-.09-.23-.16-.46-.24-.69a20.42,20.42,0,0,1,0-12.12c.08-.23.15-.46.24-.69H39.34c.09.23.16.46.24.69A20.26,20.26,0,0,1,40.5,20.25Z"/><path class="cls-2" d="M39.34,27a11.79,11.79,0,0,1-.53,1.35,20.25,20.25,0,0,1-37.12,0A11.79,11.79,0,0,1,1.16,27Z"/><path class="cls-3" d="M39.58,14.19H.92c.08-.23.15-.46.24-.69a11.65,11.65,0,0,1,.53-1.34H38.81a11.65,11.65,0,0,1,.53,1.34C39.43,13.73,39.5,14,39.58,14.19Z"/><path class="cls-3" d="M25.59,9.54c-.92,1.51-.91,2-.7,2.24l-2.55,4.37.42.25L25.33,12c.33.07.81-.33,1.63-1.81a15.67,15.67,0,0,0,1.47-4.06A14.86,14.86,0,0,0,25.59,9.54Z"/><path d="M22.76,16.41l-.43-.26h0l2.55-4.37a.69.69,0,0,1-.07-.64,6.85,6.85,0,0,1,.77-1.61h0a15.55,15.55,0,0,1,2.85-3.42h0v0A16,16,0,0,1,27,10.18a8.27,8.27,0,0,1-1,1.49c-.25.26-.45.36-.64.33Zm-.41-.26.41.24L25.33,12h.07c.37,0,.87-.58,1.56-1.81a15.79,15.79,0,0,0,1.46-4A15.74,15.74,0,0,0,25.6,9.54c-1,1.62-.87,2.05-.71,2.23h0Z"/><path class="cls-3" d="M14.91,9.54c.92,1.51.91,2,.71,2.24l2.55,4.37-.43.25L15.17,12c-.32.09-.8-.33-1.63-1.81a15.67,15.67,0,0,1-1.47-4.06A14.86,14.86,0,0,1,14.91,9.54Z"/><path d="M17.74,16.41h0L15.17,12h-.08c-.37,0-.86-.59-1.55-1.83a15.58,15.58,0,0,1-1.47-4.06v0h0a15.67,15.67,0,0,1,2.84,3.42,6.46,6.46,0,0,1,.77,1.61.67.67,0,0,1-.06.64l2.55,4.37h0ZM15.18,12h0l2.57,4.4.41-.24-2.55-4.37h0c.17-.18.28-.61-.7-2.23a15.64,15.64,0,0,0-2.83-3.41,16,16,0,0,0,1.47,4.05c.68,1.23,1.18,1.82,1.54,1.82l.08,0Z"/><path class="cls-3" d="M39.58,26.31c-.08.23-.15.46-.24.69a11.79,11.79,0,0,1-.53,1.35H1.69A11.79,11.79,0,0,1,1.16,27c-.09-.23-.16-.46-.24-.69Z"/><rect class="cls-3" x="25.51" y="26.7" width="0.49" height="6.09" transform="translate(-11.47 17.01) rotate(-30.23)"/><path d="M27.07,32.51h0L24,27.24h0l.43-.25h0l3.07,5.27h0ZM24,27.24l3.06,5.25.41-.24L24.43,27Z"/><rect class="cls-3" x="11.73" y="29.5" width="6.09" height="0.49" transform="translate(-18.36 27.53) rotate(-59.76)"/><path d="M13.45,32.51,13,32.26h0L16.1,27l.43.26h0ZM13,32.25l.41.24,3.06-5.25L16.1,27Z"/><path class="cls-1" d="M26.34,20.25a16.06,16.06,0,0,1-1.26,6c-1.46,3.58-3.8,6.14-4.83,6.14s-3.36-2.58-4.82-6.16a15.85,15.85,0,0,1-1.26-6,16,16,0,0,1,1.26-6c1.45-3.56,3.78-6.12,4.82-6.12s3.39,2.51,4.84,6.09A16.14,16.14,0,0,1,26.34,20.25Z"/><path d="M26.34,20.25a16.06,16.06,0,0,1-1.26,6,16.15,16.15,0,0,1-1.26-6,16.17,16.17,0,0,1,1.27-6.06A16.14,16.14,0,0,1,26.34,20.25Z"/><path d="M16.69,20.25a16,16,0,0,1-1.26,6,15.85,15.85,0,0,1-1.26-6,16,16,0,0,1,1.26-6A16.2,16.2,0,0,1,16.69,20.25Z"/><path class="cls-3" d="M21.29,20.25c0,.84-.46,1.52-1,1.52s-1-.68-1-1.52.47-1.51,1-1.51S21.29,19.42,21.29,20.25Z"/><path class="cls-3" d="M20.5,8.14V18.78a12,12,0,0,0,1-5.51C21.52,9.56,20.5,8.14,20.5,8.14Z"/><path class="cls-3" d="M20.5,32.37V21.73a11.94,11.94,0,0,1,1,5.5C21.52,31,20.5,32.37,20.5,32.37Z"/><path class="cls-3" d="M20,8.14V18.78a11.86,11.86,0,0,1-1-5.51C19,9.56,20,8.14,20,8.14Z"/><path class="cls-3" d="M20,32.37V21.73a11.84,11.84,0,0,0-1,5.5C19,31,20,32.37,20,32.37Z"/></g></g></svg>
